X:1
T:Rocky Top
M:4/4
L:1/4
K:D
 A A A A| B B A/2F/2 D| D D/2D/2 E/2D/2 E| F4| A A A A| B B A/2F/2 D|\
 D D F/2F/2F/2-E/2| D4| A A A A| B B A/2F/2 D| D D E/2D/2 E| F4| A A/2A/2 A A|\
 B B A/2F/2 D| D D F/2F/2 E| D4| B/2B/2 B2 B| A A A2| =c c c3/2 A/2|\
 B4| B2 B2| A/2F/2 D3| D/2D/2 D E E| F4| D/2D/2 D E E| D4|

